X: 768
T: Firkatin Aldı...
C: Bîmen Şen
O: Turkey
F: http://compmusic.upf.edu/node/140
N: hicaz--sarki--agiraksak--firkatin_aldi--bimen_sen
N: makam= hicaz
N: form= sarki
N: usul= agiraksak = 9/4
M: 9/4
L: 1/16
K: C _7/8B ^f ^c 
Q: 1/4=78
%%MIDI tuningsystem comma53
g2a4(3=bag a6(3bag a2(3bag a2(3bag a2=c'b agfe d3=f  | 
w:  ARANAĞME  | 
edcB A4 ag=fe dcd2 a2g^f =b2ag g3f gffe e4  | 
w:   | 
=c'3/2=b/ab g2a2 g2=f2 e2d2 agfe d2f2 e2d2 c2B2 A4  | 
w:   | 
(3g2=f2e2 d2f2 (3e2d2c2 B2d2 dc2B cBBA A2Bc de^fg a4  | 
w:   | 
g2a4(3=bag a6(3bag a2(3bag a2(3bag a2=c'b agfe d3=f  | 
w:  ARANAĞME  | 
edcB A4 ag=fe dcd2 a2g^f =b2ag g3f gffe e4  | 
w:   | 
=c'3/2=b/ab g2a2 g2=f2 e2d2 agfe d2f2 e2d2 c2B2 A4  | 
w:   | 
(3g2=f2e2 d2f2 (3e2d2c2 B2d2 dc2B cBBA A3f edcB A4  | 
w:   | 
z8 z2d2 c2d2 e8 g8 =f4  | =f2e4d2 z2e4f2 e2d4e2 d2c=B c2d2 c2{e}dc  | 
w:  Fir *  ka tin_ al  |  *  *  *  dı  bü tün  *  *  neş  | 
c8-c2de d2e2 e8 g2fe f4 a4  | g2ag f2e2 z2fe f2a2 ag2f gffe e6d2 g2fe  | 
w:  *  ve  *  *  i  tâ bım   |  *  *  *  *  *  bu  *  *  *  *  *  *  *  *  ge *  ce   SAZ  | 
e4 defg a2a4a2 a8 g8 =f4  | =f2e4d2 z2g2 f2f2 f2e4d2 g2f2 e2d2 c2B2  | 
w:  *  *  *  *  *  *  Ağ la mak tan   |  *  *  *  yi *  ne  zehr_ *  *  ol  | 
c2{e}dc c6cd c2d2 B2cB A4 g2=fe d4 c4  | \
w:  *  *  *  *  *  du  *  *  şa ra *  *  *  bım   | 
d2ed cBA2 z2Bc B2c2 d2{e}dc cBBA A6e=f edcd  | 
w:  *  *  *  *  *  *  bu  *  *  *  *  *  *  *  *  *  ge *  ce   SAZ  | 
e4 defg a2a4a2 a8 g8 =f4  | =f2e4d2 z2g2 f2f2 f2e4d2 g2f2 e2d2 c2B2  | 
w:  *  *  *  *  *  *  Ağ la mak tan   |  *  *  *  yi *  ne  zehr_ *  *  ol  | 
c2{e}dc c6cd c2d2 B2cB A4 g2=fe d4 c4  | \
w:  *  *  *  *  *  du  *  *  şa ra *  *  *  bım   | 
d2ed cBA2 z2Bc B2c2 d2{e}dc cBBA A6g2 f2g2  | 
w:  *  *  *  *  *  *  bu  *  *  *  *  *  *  *  *  *  ge *  ce   SAZ  | 
a3=b aga2 z2g4a2 a8 b8 a4  | a2g4f2 z2a=b a2b2 a2g4f2 a2g2 f2^e2 f2{a}gf  | 
w:  *  *  *  *  *  Taş tı  pey mâ  |  *  *  *  ne  *  *  i  gam  *  *  kal  | 
f8-f2fg f2g2 e8 g2a2 g4 a4  | g2a2 g2f2 z2ga g2a2 g2fe f2g2 a6=b=c' baag  | 
w:  *  ma *  *  dı  şek va  |  *  *  *  *  ya  *  *  *  *  *  *  *  me cal   SAZ  | 
a3=b aga2 z2g4a2 b3a g4 =c'8 b4  | \
w:  *  *  *  *  *  Mih ve rim *  *  de   | 
=b2a4g2 z2ab a2b2 a2g4f2 g3f g2b2 a4  | 
w:  *  *  *  do *  *  la şır  *  *  leş  | 
=bagf e6de d2e2 e8 g2fe f4 a4  | g2ag f2e2 z2fe f2a2 ag2f gffe e6d2 g2fe  | 
w:  *  *  *  *  *  ker_ *  *  i  en dûh_  |  *  *  *  *  *  i  *  *  *  *  *  *  *  *  me *  lâl   SAZ  | 
e4 defg a2a4a2 a8 g8 =f4  | =f2e4d2 z2g2 f2f2 f2e4d2 g2f2 e2d2 c2B2  | 
w:  *  *  *  *  *  *  Ağ la mak tan   |  *  *  *  yi *  ne  zehr_ *  *  ol  | 
c2{e}dc c6cd c2d2 B2cB A4 g2=fe d4 c4  | \
w:  *  *  *  *  *  du  *  *  şa ra *  *  *  bım   | 
d2ed cBA2 z2Bc B2c2 d2{e}dc cBBA A6|
w:  *  *  *  *  *  *  bu  *  *  *  *  *  *  *  *  *  ge *  ce    | 


